app/images/user.svg

<svg width="24" height="24" viewBox="0 0 24 24" fill="none" xmlns="http://www.w3.org/2000/svg">
<path d="M20.8225 18.096C17.3835 17.302 14.1825 16.606 15.7325 13.678C20.4525 4.766 16.9835 0 12.0005 0C6.91849 0 3.53649 4.949 8.26849 13.678C9.86549 16.623 6.54349 17.319 3.17849 18.096C0.105486 18.806 -0.00951398 20.332 0.000486018 23L0.00448602 24H23.9945L23.9985 23.031C24.0105 20.343 23.9065 18.809 20.8225 18.096Z" fill="#2F3035"/>
</svg>

<svg width="24" height="24" viewBox="0 0 24 24" xmlns="http://www.w3.org/2000/svg" fill="none"><path d="M20.823 18.096c-3.439-.794-6.64-1.49-5.09-4.418 4.72-8.912 1.251-13.678-3.732-13.678-5.082 0-8.464 4.949-3.732 13.678 1.597 2.945-1.725 3.641-5.09 4.418-3.073.71-3.188 2.236-3.178 4.904l.004 1h23.99l.004-.969c.012-2.688-.092-4.222-3.176-4.935z" fill="#2F3035"/></svg>
